X:1
T:Rimsky-Korsakov Harmonic Exercises,
T:Augmented triad
T:Rimsky-Korsakov Harmonic Exercises, Augmented triad
T:"Practical Manual of Harmony" (1885)
T:Table of all resolutions:
L:1/8
Q:1/2=100
M:2/1
K:C
V:1 treble nm="Piano" snm="Pno."
V:1
"^Augmented triad can be resolved in four ways:" ([CE^G]8 !breath![CEA]8) |] %1
 ([CE^G]8 !breath![B,E^G]8) |] ([CE^G]8 !breath![CFA]8) |] ([CE^G]8 !breath![B,^D^G]8) |] %4
[M:2/2]"^There are two enharmonic equalities:""^=" [CE^G]8 |]"^=" [CE_A]8 |] !breath![C_F_A]8 |] %7
[M:4/2]"""_e:" ([GB^d]8"" !breath![GBe]8) |]"" ([GB^d]8"" !breath![Gce]8) |] %9
"""_B:" ([=GB^d]8"" !breath![^FB^d]8) |]"" ([=GB^d]8"" !breath![^F^A^d]8) |] %11
"""_c:" ([G=B_e]8"" !breath![Gc_e]8) |]"" ([G=B_e]8"" !breath![_Ac_e]8) |] %13
"""_G:" ([GB_e]8"" !breath![GBd]8) |]"" ([GB_e]8"" !breath![^FBd]8) |] %15
"""_a♭:" ([=G_c_e]8"" !breath![_A_c_e]8) |]"" ([=G_c_e]8"" !breath![_A_c_f]8) |] %17
"""_E♭:" ([G_c_e]8"" !breath![G_B_e]8) |]"" ([G_c_e]8"" !breath![G_Bd]8) |] %19

